resources/haticons/SVG/wb_sunny.svg

<!-- Generated by IcoMoon.io -->
<svg version="1.1" xmlns="http://www.w3.org/2000/svg" width="24" height="24" viewBox="0 0 24 24">
<title>wb_sunny</title>
<path d="M3.563 18.563l1.781-1.828 1.406 1.406-1.781 1.828zM11.016 22.453v-2.953h1.969v2.953h-1.969zM12 5.484q2.484 0 4.242 1.758t1.758 4.242-1.758 4.242-4.242 1.758-4.242-1.758-1.758-4.242 1.758-4.242 4.242-1.758zM20.016 10.5h3v2.016h-3v-2.016zM17.25 18.141l1.406-1.359 1.781 1.781-1.406 1.406zM20.438 4.453l-1.781 1.781-1.406-1.406 1.781-1.781zM12.984 0.563v2.953h-1.969v-2.953h1.969zM3.984 10.5v2.016h-3v-2.016h3zM6.75 4.828l-1.406 1.406-1.781-1.781 1.406-1.406z"></path>
</svg>

<svg xmlns="http://www.w3.org/2000/svg" width="24" height="24"><path d="M3.563 18.563l1.781-1.828 1.406 1.406-1.781 1.828zm7.453 3.89V19.5h1.969v2.953h-1.969zM12 5.484q2.484 0 4.242 1.758T18 11.484t-1.758 4.242T12 17.484t-4.242-1.758T6 11.484t1.758-4.242T12 5.484zm8.016 5.016h3v2.016h-3V10.5zm-2.766 7.641l1.406-1.359 1.781 1.781-1.406 1.406zm3.188-13.688l-1.781 1.781-1.406-1.406 1.781-1.781zM12.984.563v2.953h-1.969V.563h1.969zm-9 9.937v2.016h-3V10.5h3zM6.75 4.828L5.344 6.234 3.563 4.453l1.406-1.406z"/></svg>
